static/img/olake/ListMagnifyingGlass.svg

<svg width="40" height="40" viewBox="0 0 40 40" fill="none" xmlns="http://www.w3.org/2000/svg">
<path d="M4.375 10C4.375 9.50272 4.57254 9.02581 4.92417 8.67417C5.27581 8.32254 5.75272 8.125 6.25 8.125H33.75C34.2473 8.125 34.7242 8.32254 35.0758 8.67417C35.4275 9.02581 35.625 9.50272 35.625 10C35.625 10.4973 35.4275 10.9742 35.0758 11.3258C34.7242 11.6775 34.2473 11.875 33.75 11.875H6.25C5.75272 11.875 5.27581 11.6775 4.92417 11.3258C4.57254 10.9742 4.375 10.4973 4.375 10ZM6.25 21.875H16.25C16.7473 21.875 17.2242 21.6775 17.5758 21.3258C17.9275 20.9742 18.125 20.4973 18.125 20C18.125 19.5027 17.9275 19.0258 17.5758 18.6742C17.2242 18.3225 16.7473 18.125 16.25 18.125H6.25C5.75272 18.125 5.27581 18.3225 4.92417 18.6742C4.57254 19.0258 4.375 19.5027 4.375 20C4.375 20.4973 4.57254 20.9742 4.92417 21.3258C5.27581 21.6775 5.75272 21.875 6.25 21.875ZM18.75 28.125H6.25C5.75272 28.125 5.27581 28.3225 4.92417 28.6742C4.57254 29.0258 4.375 29.5027 4.375 30C4.375 30.4973 4.57254 30.9742 4.92417 31.3258C5.27581 31.6775 5.75272 31.875 6.25 31.875H18.75C19.2473 31.875 19.7242 31.6775 20.0758 31.3258C20.4275 30.9742 20.625 30.4973 20.625 30C20.625 29.5027 20.4275 29.0258 20.0758 28.6742C19.7242 28.3225 19.2473 28.125 18.75 28.125ZM37.5766 31.3266C37.4024 31.5014 37.1954 31.6401 36.9675 31.7347C36.7396 31.8293 36.4952 31.878 36.2484 31.878C36.0017 31.878 35.7573 31.8293 35.5294 31.7347C35.3015 31.6401 35.0945 31.5014 34.9203 31.3266L32.0953 28.5016C30.6463 29.3096 28.9539 29.5664 27.3304 29.2245C25.7069 28.8826 24.2618 27.9652 23.2616 26.6414C22.2615 25.3177 21.7738 23.6769 21.8885 22.0218C22.0031 20.3667 22.7125 18.8088 23.8857 17.6357C25.0588 16.4625 26.6167 15.7531 28.2718 15.6385C29.9269 15.5238 31.5677 16.0115 32.8914 17.0116C34.2152 18.0118 35.1326 19.4569 35.4745 21.0804C35.8164 22.7039 35.5596 24.3963 34.7516 25.8453L37.5766 28.6687C37.7516 28.843 37.8905 29.0501 37.9853 29.2781C38.08 29.5062 38.1288 29.7507 38.1288 29.9977C38.1288 30.2446 38.08 30.4891 37.9853 30.7172C37.8905 30.9453 37.7516 31.1523 37.5766 31.3266ZM28.75 25.625C29.3681 25.625 29.9723 25.4417 30.4862 25.0983C31.0001 24.755 31.4006 24.2669 31.6371 23.6959C31.8736 23.1249 31.9355 22.4965 31.815 21.8903C31.6944 21.2842 31.3967 20.7273 30.9597 20.2903C30.5227 19.8533 29.9658 19.5556 29.3597 19.435C28.7535 19.3145 28.1251 19.3764 27.5541 19.6129C26.9831 19.8494 26.495 20.2499 26.1517 20.7638C25.8083 21.2777 25.625 21.8819 25.625 22.5C25.625 22.9104 25.7058 23.3167 25.8629 23.6959C26.0199 24.075 26.2501 24.4195 26.5403 24.7097C26.8305 24.9999 27.175 25.2301 27.5541 25.3871C27.9333 25.5442 28.3396 25.625 28.75 25.625Z" fill="white"/>
</svg>

<svg xmlns="http://www.w3.org/2000/svg" width="40" height="40" fill="none" viewBox="0 0 40 40"><path fill="#fff" d="M4.375 10A1.875 1.875 0 0 1 6.25 8.125h27.5a1.875 1.875 0 1 1 0 3.75H6.25A1.875 1.875 0 0 1 4.375 10M6.25 21.875h10a1.875 1.875 0 1 0 0-3.75h-10a1.875 1.875 0 1 0 0 3.75m12.5 6.25H6.25a1.875 1.875 0 1 0 0 3.75h12.5a1.875 1.875 0 1 0 0-3.75m18.827 3.202a1.875 1.875 0 0 1-2.657 0l-2.825-2.825a6.875 6.875 0 1 1 2.657-2.657l2.825 2.824a1.88 1.88 0 0 1 0 2.658m-8.827-5.702a3.125 3.125 0 1 0 0-6.25 3.125 3.125 0 0 0 0 6.25"/></svg>
